X:1
T:Per lei pos'in oblio
T:Madalena Casulana
T:Source : Secondo libri de madrigali a quattro voci---Venetia---G.Scotto---1570. Editor : André Vierendeels (04/09/17).
T:Per lei pos'in oblio
T:Quinta et ultima parte
T:©
T:©
T:©
T:©
T:©
C:Madalena Casulana
Z:©
%%score [ 1 [ 2 3 ] 4 ]
L:1/8
Q:1/4=120
M:4/4
K:C
V:1 treble nm="Soprano" snm="S"
V:2 treble nm="Alto 1" snm="A 1"
V:3 treble nm="Alto 2" snm="A 2"
V:4 treble-8 nm="Tenor" snm="T"
V:1
 z8 | d4 c2 A2 | B2 c2 B4 | A2 f2 e2 f2 | d2 e2 cd e2- | ed/c/ d2 e4 | z2 c2 c3 c | c2 d2 e4 | %8
w: |Per lei pos'|in o- bli-|o, per lei pos'|in o- bli _ _|_ _ _ _ o,|le vag' e|biond' a- re-|
 d2 g2 ee f2 | d2 e2 AA c2 | c2 f2 dd e2 | d2 B2 B2 c2- | cc c2 c4- | c4 A4 |[M:3/4] c2 B2 c2 | %15
w: ne, tan- to gra- di-|te, tan- to gra- di-|te, tan- to gra- di-|te al gran po-|* pul di Mar-|* te,|et o- gni|
 d4 e2 | d2 d2 B2 |[M:4/4] c4 d2 B2- | B2 B2 A4- | A4 A4 |[M:3/4] d2 d2 c2 | B3 c d2 | e2 c2 f2 | %23
w: pen- sier|mi- o, pin-|gend' in vi-|* ve car-|* te,|lei sol' an-|dra per que-|ste piagg' a-|
 e4 e2 | B2 B2 B2 |[M:4/4] ^c4 d4 | _B8 |"^-natural" A2 A2 B2 c2- | cc c2 A4 | B2 d2 e2 e2- | %30
w: me- ne,|e da lei|stanc' e|fra-|le, at- tend' am-|* be due l'a-|le, at- tend' am-|
 ee g2 e4 | d2 A2 B2 d2- | dd B2 Bc BA/G/ | ABcd e4 | e2 A2 _BA AG/F/ | G4 A2 c2 | c2 c2 f4 | %37
w: * be due l'a-|le, per gir sem-|* pre vo- lan- * * * *||do, vo- lan- * * * *|* do, qual|ci- gno lie-|
 d4 e4 | z4 z2 d2 | e2 d2 Bc d2 | B2 g2 e2 d2 | Bc d2 G2 G2 | d6 d2 | d8 | d8 |] %45
w: to lei|so-|la can- tan- * *|do, so- la can-|tan- * * don so-|la can-|tan-|do.|
V:2
 A4 G2 E2 | F2 G2 A3 G/F/ | GE A4 ^G2 | A4 z2 c2 | B2 G2 AB c2- | cB A3 ^G/^F/ G2 | A2 E2 A3 A | %7
w: Per lei pos'|in o- bli- * *||o, per|lei pos' in o- bli-||o, le vag' e|
 G2 G4 c2- | c2 B2 A2 AA | G2 G2 F2 AA | G2 c2 B2 cc | A2 D2 z2 G2 | E2 A3 A A2 | G4 c4 | %14
w: biond' a- re-|* ne, tan- to gra-|di- te, tan- to gra-|di- te tan- to gra-|di- te al|gran po- pul di|Mar- te,|
[M:3/4] A2 G2 A2 | B4 c2 | B2 B2 G2 |[M:4/4] A6 G2 | G4 F4 | E4 ^F4 |[M:3/4] A2 B2 A2 | ^G3 A B2 | %22
w: et o- gni|pen- sier|mi- o, pin-|gend' in|vi- ve|car- te,|lei sol' an-|dra per que-|
 c2 A2 A2 | ^G4 G2 | ^G2 G2 G2 |[M:4/4] A4 A4 | G8 | ^F2 F2 G2 A2- | AA G4 ^F2 | G2 B2 c2 c2- | %30
w: sta piagg' a-|me- ne,|e da lei|stanc' e|fra-|le, at- tend' am-|* be due l'a-|le, at- tend' am-|
 cG _B2 A4 |"^-natural" ^F4 z2 F2 | G2 G3 G D2 | FG A3 G/F/ ^G2 | A2 E2 FGAB | c4 c2 A2 | %36
w: * be due l'a-|le, per|gir sem- pre vo-|lan- * * * * *|do, vo- lan- * * *|* do, qual|
 A2 A2 c4 | B4 c2 G2 | A2 G2 EF G2 | G4 z2 D2 | E2 D2 G4 | G2 D2 E2 G2 | ^F4 G2 B2 | A8 | B8 |] %45
w: ci- gno lie-|to lei so-|la can- tan- * *|do, so-|la can- tan-|do, so- la can-|tan- do, can-|tan-|do.|
V:3
 z8 | z4 F4 | E2 C2 D2 E2 |"^-natural" F4 G2 A2 | G2 E2 F2 E2 | A,4 B,4 | z2 C2 F3 F | E2 D2 G4 | %8
w: |Per|lei pos' in o-|bli- o, per|lei pos' in o-|bli- o,|la vag' e|biond' a- re-|
 G2 D2 ^CC D2 | B,2 C2 CC F2 | E2 A2 G3 G | ^F2 G2 z2 E2 | G2 F3 FEF- | FE/D/ E2 F4 | %14
w: ne, tan- to gra- di-|te, tan- to gra- di-|te, yan- to gra-|di- te al|gran po- pul di Mar-|* * * * te,|
[M:3/4] F2 D2 E2 | G4 G2 | G2 G2 D2 |[M:4/4] F6 D2 | D6 D2 | ^C4 D4 |[M:3/4] ^F2 G2 E2 | %21
w: et o- gni|pen- sier|mi- o, pin-|gend' in|vi- ce|car- te,|lei sol' an-|
"^-natural" E3 E G2 | G,2 A,2 D2 | B,4 B,2 | E2 E2 E2 |[M:4/4] E4 D4 | D8 | D2 D2 G2 F2- | %28
w: dra per que-|ste piagg' a-|me- ne,|e da lei|stanc' e|fra-|le, at- tend' am-|
 FF C2 D4 | G,2 G2 G2 G2- | GC D4 ^C2 | D4 z2 A,2 | B,2 D3 D B,2 | C2 B,A, B,3 A,/B,/ | %34
w: * be due l'a-|le, at- tend' am-|* be due l'a-|le, per|gir sem- pre vo-|lan- * * * * *|
 CDEC DE F2- | FE/D/ E2 F2 F2 | F2 F2 A4 | G4 G2 C2- | C2 D2 C2 B,2- | B,A,B,C D2 B,2 | %40
w: |* * * * do, qual|ci- gno lie-|to lei so-|* la can- tan-|* * * * * do,|
 z2 B,2 C2 B,2 | G,A,B,G, CB, B,A,/G,/ | A,4 G,2 G2- | G2 ^FE F4 | G8 |] %45
w: can- tan- *||* do, can|_ _ _ tan-|do.|
V:4
 z8 | z8 | z8 | d4 c2 A2 | B2 c2 A3 G | F4 E4 | z2 A2 F3 F | c2 B2 c4 | G4 A2 DD | G2 E2 F2 FF | %10
w: |||Per lei pos'|in o- bli- *|* o,|le vag' e|biond' a- re-|ne, tan- to gra-|di- te, tan- to gra-|
 c2 F2 G2 CC | D2 G2 z2 C2 | c2 F3 F A2 | c4 F4 |[M:3/4] F2 G2 G2 | G4 C2 | G2 G2 G2 | %17
w: di- te, tan- to gra-|di- te al|gran po- pul di|Mar- te,|et o- gni|pen- sier|mi- o, pin-|
[M:4/4] F6 G2 | G4 d4 | A4 D4 |[M:3/4] D2 G2 A2 | E3 A G2 |"^-natural" E2 F2 D2 | E4 E2 | %24
w: gend' in|vi- ve|car- te,|lei sol' an-|dra per que-|ste piagg' a-|me- ne,|
 E2 E2 E2 |[M:4/4] A4 ^F4 | G8 | D4 z4 | z8 | z2 G2 c2 c2- | cc G2 A4 | D4 z2 D2 | G2 G2 G2 G2 | %33
w: e da lei|stanc' e|fra-|le,||at- tend' am-|* be due l'a-|le, per|gir sem- pre vo-|
 F4 E2 E2 | ABcA d4 | c4 z2 F2 | F2 F2 F4 | G4 C4 | z2 G2 A2 G2 | EF G2 G4- | G4 z4 | z2 G2 E4 | %42
w: lan- do, vo-|lan- * * * *|do, qual|ci- gno lie-|to lei|so- la can-|tan- * * do|_|so- la|
 D4 B,3 C | D8 | G8 |] %45
w: can- tan- *||do.|

